X:130
T:Jig Arglwydd Caernarfon - The Lord of Caernarfon's Jig
M:4/4
L:1/4
Q:100
C:Trad. arr. J.T.
S:Playford 1651
R:Processional
N:Aeolian mode arrangement. This tune is a well known part of the Welsh
N:folk dance repertoir though one might wonder whether the Lord of
N:Caernarfon ever set foot in Wales
K:G
G E G/A/ B | A F F/G/ A/B/ | G E G A/B/ |
c2 A2 :|| B/A/ G/A/ B G | F/E/ F/G/ A B/A/ |
G E F/E/ D | E2 B2 | B/A/ G/A/ B G |
F/E/ F/G/ A B/A/ | G E F/E/ D | E2- E2 ||
